assets/bank-tab/Asset/Two Wheeler Loan.svg

<svg width="28" height="28" viewBox="0 0 28 28" fill="none" xmlns="http://www.w3.org/2000/svg">
<path d="M11.1384 6.80982C13.3435 6.42634 15.5374 6.39757 17.7282 6.86353C19.2577 7.18931 20.5135 8.67792 20.7341 10.3645C21.1435 13.496 21.1434 16.6283 20.7341 19.759C20.4931 21.5984 19.0684 23.1017 17.3513 23.345C17.14 23.3748 17.2067 23.2263 17.2067 23.1292C17.204 21.7171 17.2079 20.3046 17.2038 18.8918C17.2024 18.3836 17.234 17.8754 17.1081 17.3723C16.7432 15.91 15.4051 14.9231 14.0134 15.1047C12.5811 15.291 11.4835 16.5543 11.4684 18.0745C11.452 19.7326 11.4633 21.391 11.4626 23.0491V23.346L11.4616 23.3469C9.67625 23.1715 8.18619 21.6688 7.93622 19.7844C7.52405 16.6726 7.54062 13.561 7.91375 10.4426C8.12948 8.63716 9.6166 7.0745 11.1384 6.80982Z" fill="#8F242A"/>
<path d="M11.285 17.6064C11.285 15.9146 12.6565 14.5431 14.3483 14.5431C16.0401 14.5431 17.4116 15.9146 17.4116 17.6064V25.6787H11.285V17.6064Z" fill="#FACCD4"/>
<path d="M14.027 26.1388C13.954 26.0663 13.8548 26.0719 13.7683 26.0388C13.0882 25.7767 12.6491 25.1314 12.6456 24.3166C12.6368 22.118 12.6339 19.9188 12.6468 17.7201C12.6526 16.7353 13.2779 16.0236 14.1794 15.9148C14.9974 15.816 15.7622 16.3982 15.9695 17.2793C16.0127 17.4612 16.0226 17.6482 16.0226 17.8358C16.0226 19.9644 16.0238 22.0936 16.022 24.2222C16.0209 25.2277 15.5327 25.8799 14.6225 26.1075C14.6114 26.11 14.6038 26.1282 14.5945 26.1388H14.0264H14.027Z" fill="#8F242A"/>
<path d="M13.9999 0C15.3057 0 16.4139 0.835351 16.826 2H20.0409C20.5932 2 21.0409 2.44772 21.0409 3C21.0409 3.55228 20.5932 4 20.0409 4H16.826C16.4139 5.16465 15.3057 6 13.9999 6C12.6942 5.99992 11.5868 5.16449 11.1747 4H7.95886C7.40658 4 6.95886 3.55228 6.95886 3C6.95886 2.44772 7.40658 2 7.95886 2H11.1747C11.5868 0.835506 12.6942 7.79839e-05 13.9999 0ZM13.9999 1.49805C13.1707 1.49815 12.4989 2.17076 12.4989 3C12.4989 3.82924 13.1707 4.50185 13.9999 4.50195C14.8292 4.50195 15.5018 3.8293 15.5018 3C15.5018 2.1707 14.8292 1.49805 13.9999 1.49805Z" fill="#8F242A"/>
</svg>

<svg xmlns="http://www.w3.org/2000/svg" width="28" height="28" fill="none" viewBox="0 0 28 28"><path fill="#8f242a" d="M11.138 6.81c2.206-.384 4.4-.412 6.59.054 1.53.325 2.785 1.814 3.006 3.5q.615 4.698 0 9.395c-.24 1.84-1.666 3.343-3.383 3.586-.211.03-.144-.119-.144-.216-.003-1.412 0-2.824-.003-4.237-.002-.508.03-1.017-.096-1.52-.365-1.462-1.703-2.449-3.095-2.267-1.432.186-2.53 1.45-2.545 2.97-.016 1.658-.005 3.316-.005 4.974v.297h-.001c-1.786-.174-3.276-1.677-3.526-3.562-.412-3.111-.395-6.223-.022-9.341.215-1.806 1.703-3.368 3.224-3.633"/><path fill="#faccd4" d="M11.285 17.606a3.063 3.063 0 0 1 6.127 0v8.073h-6.127z"/><path fill="#8f242a" d="M14.027 26.139c-.073-.073-.172-.067-.259-.1-.68-.262-1.119-.908-1.122-1.722a668 668 0 0 1 0-6.597c.007-.985.632-1.696 1.533-1.805.818-.099 1.583.483 1.79 1.364a2.4 2.4 0 0 1 .054.557l-.001 6.386c-.001 1.006-.49 1.658-1.4 1.886-.01.002-.018.02-.027.03zM14 0c1.306 0 2.414.835 2.826 2h3.215a1 1 0 1 1 0 2h-3.215A3 3 0 0 1 14 6a3 3 0 0 1-2.825-2H7.959a1 1 0 0 1 0-2h3.216C11.587.836 12.695 0 14 0m0 1.498a1.502 1.502 0 1 0 0 3.003 1.502 1.502 0 0 0 0-3.003"/></svg>
